svgs/thin/building-columns.svg

<svg xmlns="http://www.w3.org/2000/svg" viewBox="0 0 512 512"><!--! Font Awesome Pro 6.4.2 by @fontawesome - https://fontawesome.com License - https://fontawesome.com/license (Commercial License) Copyright 2023 Fonticons, Inc. --><path d="M252.7 .7c2.1-.9 4.5-.9 6.6 0L497.9 108.5c8.6 3.9 14.1 12.4 14.1 21.9V136c0 13.3-10.7 24-24 24H256 24c-13.3 0-24-10.7-24-24v-5.7c0-9.4 5.5-18 14.1-21.9L252.7 .7zM288 144H488c4.4 0 8-3.6 8-8v-5.7c0-3.1-1.8-6-4.7-7.3L256 16.8 20.7 123c-2.9 1.3-4.7 4.1-4.7 7.3V136c0 4.4 3.6 8 8 8H224c-5-6.7-8-15-8-24c0-22.1 17.9-40 40-40s40 17.9 40 40c0 9-3 17.3-8 24zm-32 0a24 24 0 1 0 0-48 24 24 0 1 0 0 48zM72 192c4.4 0 8 3.6 8 8V368H184V200c0-4.4 3.6-8 8-8s8 3.6 8 8V368H312V200c0-4.4 3.6-8 8-8s8 3.6 8 8V368H432V200c0-4.4 3.6-8 8-8s8 3.6 8 8V376c0 4.4-3.6 8-8 8H72c-4.4 0-8-3.6-8-8V200c0-4.4 3.6-8 8-8zM32 440c0-4.4 3.6-8 8-8H472c4.4 0 8 3.6 8 8s-3.6 8-8 8H40c-4.4 0-8-3.6-8-8zM0 504c0-4.4 3.6-8 8-8H504c4.4 0 8 3.6 8 8s-3.6 8-8 8H8c-4.4 0-8-3.6-8-8z"/></svg>

<svg xmlns="http://www.w3.org/2000/svg" viewBox="0 0 512 512"><!--! Font Awesome Pro 6.1.1 by @fontawesome - https://fontawesome.com License - https://fontawesome.com/license (Commercial License) Copyright 2022 Fonticons, Inc. --><path d="M252.7 .709C254.8-.2363 257.2-.2363 259.3 .709L497.9 108.5C506.5 112.3 512 120.9 512 130.3V136C512 149.3 501.3 160 488 160H24C10.75 160 0 149.3 0 136V130.3C0 120.9 5.525 112.3 14.12 108.5L252.7 .709zM488 144C492.4 144 496 140.4 496 136V130.3C496 127.2 494.2 124.3 491.3 123L256 16.78L20.71 123C17.84 124.3 16 127.2 16 130.3V136C16 140.4 19.58 144 24 144H223.1C218.1 137.3 216 129 216 119.1C216 97.91 233.9 79.1 256 79.1C278.1 79.1 296 97.91 296 119.1C296 129 293 137.3 288 144H488zM256 144C269.3 144 280 133.3 280 119.1C280 106.7 269.3 95.1 256 95.1C242.7 95.1 232 106.7 232 119.1C232 133.3 242.7 144 256 144zM72 192C76.42 192 80 195.6 80 200V368H184V200C184 195.6 187.6 192 192 192C196.4 192 200 195.6 200 200V368H312V200C312 195.6 315.6 192 320 192C324.4 192 328 195.6 328 200V368H432V200C432 195.6 435.6 192 440 192C444.4 192 448 195.6 448 200V376C448 380.4 444.4 384 440 384H72C67.58 384 64 380.4 64 376V200C64 195.6 67.58 192 72 192zM32 440C32 435.6 35.58 432 40 432H472C476.4 432 480 435.6 480 440C480 444.4 476.4 448 472 448H40C35.58 448 32 444.4 32 440zM.0003 504C.0003 499.6 3.582 496 8 496H504C508.4 496 512 499.6 512 504C512 508.4 508.4 512 504 512H8C3.582 512 .0003 508.4 .0003 504z"/></svg>
